X:1
T:Tarantella part 1
T:Tarantella part 1
T:Nigganuts
Z:Nigganuts
L:1/8
M:6/8
K:F
V:1 treble nm="Piano" snm="Pno."
V:1
 fed fed | fed Ade | f z z f z z | f3- f z z | f_e_d fed | f_e_d _Ade | f z z f z z | f3- f_A_d | %8
 f z f _e z e | c z c _AGA | c z c B z B | _e3 _d3 | c z c =B z c | f z f _e z e | =B z B _B3 | %15
 _e3 z2 z | _edc edc | _edc Gcd | _e z z e z z | _e3- e z f | gf_e gfe | gf_e Bef | g z z g z z | %23
 g3- gB_e | g z g G z G | B z B AGF | E z e d z d | f z f edc | B z B AGF | E z e dcB | A z A GFE | %31
 D3 z z2 | z6 | z6 | z6 | z6 | z6 | z6 | z6 | z6 | z6 | z6 | z6 |] %43

